!!!!SEGMENT: pl-sa--l-1636--078_anonim--fuga.krn
!!!cenid: 17xx:785
!!!COM: Anonim
!!!COM-rismID: pe30004985
!!!CDT:
!!!CNT:
!!!OTL: Fuga
!!!PDT:
!!!AGN: Secular; Fugue
!!!SMS-siglum: PL-SA
!!!SMS-shelfmark: L 1636
!!!SMS-shelfwork: 078 W
!!!SMS-variant:
!!!SMS-altvar:
!!!NIFC-rismSourceID: 1001076928
!!!NIFC-rismChildID: 1001076928
!!!NIFC-islandoraID:
!!!URL-pdf-islandora:
!!!URL-scan:
!!!IIIF:
!!!ONB-nifc: 23v-25r, skan 0027-0028
!!!AIN: 2 empty
!!!key:
**kern	**kern
*part2	*part1
*staff2	*staff1
*Iempty	*Iempty
*I"	*I"
*I'keyb	*I'keyb
*clefC4	*clefG2
*k[b-]	*k[b-]
*F:	*F:
*M2/2	*M2/2
*met(c|)	*met(c|)
=1	=1
*2\right	*2\right
!	!LO:TX:a:t=P:problem=wszystkie caudy z prawej
1ryy	4.cc\
.	16b-\LL
.	16cc\JJ
.	16f/LL
.	16g/
.	16a/
.	16b-/JJ
!	!LO:TX:a:t=P:problem=mixed beam
.	8cc\L
.	8a/J
=2	=2
2ryy	8dd\L
.	16b-\L
.	16a\JJ
!	!LO:TX:a:t=P:problem=mixed beam
.	16g/LL
.	16cc\
.	16b-\
.	16cc\JJ
!LO:TX:a:t=P:problem=wszystkie caudy z prawej	!
4.f\	8a/L
.	16b-/L
.	16cc/JJ
.	4a/
16e\LL	.
16f\JJ	.
=3	=3
16B-\LL	4b-/
16c\	.
16d\	.
16e\JJ	.
8f\L	8a/L
8d\J	8b-/J
8g\L	4g/
16e-X\L	.
16d\JJ	.
16c\LL	16a/LL
16f\	16cc/
16e-\	16b-/
16f\JJ	16cc/JJ
=4	=4
4d\	8dd\L
.	16cc\L
.	16dd\JJ
4g\	16b-\LL
.	16dd\
.	16cc\
.	16b-\JJ
!!LO:LB:g=original
4e\	8cc\L
.	16b-\L
.	16cc\JJ
4f\	16a\LL
.	16cc\
.	16b-\
.	16a\JJ
=5	=5
*	*^
8d\L	4b-/	4ryy
8e\J	.	.
4f\	4a/	(<[>4f\
4.c\	2g/	4f\])
.	.	8e\L
16B-\LL	.	16d\L
16c\JJ	.	16e\JJ
=6	=6	=6
16F/LL	4a/	4f\
16G/	.	.
16A/	.	.
16B-/JJ	.	.
8c\L	8g/L	4ryy
8A\J	8a/J	.
8d\L	4a/	8f\L
16B-\L	.	16d\L
16A\JJ	.	16c\JJ
!LO:TX:a:t=P:problem=mixed beam	!	!
16G/LL	4ryy	16B-\LL
16c\	.	16e\
16B-\	.	16d\
16c\JJ	.	16e\JJ
*	*v	*v
=7	=7
*^	*
!	!	!LO:TX:a:t=P:problem=mixed beam
4c\	4ryy	16g/LL
.	.	16cc\
.	.	16b-\
.	.	16cc\JJ
!	!	!LO:TX:a:t=P:problem=mixed beam
[>4d/	4A\	16f/LL
.	.	16ff\
.	.	16ee\
.	.	16ff\JJ
4d/]	2B-\	8dd\L
.	.	16b-\L
.	.	16a\JJ
!	!	!LO:TX:a:t=P:problem=mixed beam
4e/	.	8g/L
.	.	16cc\L
.	.	16b-\JJ
=8	=8	=8
*	*	*^
8f\L	4ryy	4cc/	8a\L
16d\L	.	.	16f\L
16c\JJ	.	.	16e\JJ
*	*	*v	*v
!	!	!LO:TX:a:t=P:problem=mixed beam
4d/	4B-\	8d/L
.	.	16dd\L
.	.	16cc\JJ
!!LO:LB:g=original
!	!	!LO:TX:a:t=P:problem=4 kolejne nuty wytarte w źródle
!	!	!LO:TX:a:t=f
4G/	2ryy	16f/LL
!	!	!LO:TX:a:t=g
.	.	16g/
!	!	!LO:TX:a:t=f
.	.	16f/
!	!	!LO:TX:a:t=e
.	.	16e/JJ
!	!	!LO:TX:a:t=P:problem=mixed beam
4c/	.	8f/L
.	.	16cc\L
.	.	16b-\JJ
=9	=9	=9
4f/	4F\	16a/LL
.	.	16b-/
.	.	16a/
.	.	16g/JJ
!	!	!LO:TX:a:t=P:problem=mixed beam
4d/	4B-\	16f/LL
.	.	16dd\
.	.	16cc\
.	.	16dd\JJ
4g/	4G\	16b-/LL
.	.	16cc/
.	.	16b-/
.	.	16a/JJ
!	!	!LO:TX:a:t=P:problem=mixed beam
4e/	4c\	16g/LL
.	.	16cc\
.	.	16b-\
.	.	16cc\JJ
*v	*v	*
=10	=10
*	*^
4f\	8a/L	4ryy
.	8b-/J	.
8e\L	4.cc/	4g\
16d\L	.	.
16c\JJ	.	.
4.d\	.	4.f\
.	16b-/LL	.
.	16a/JJ	.
!	!LO:SIC:o=4.b-	!
.	[>4b-/	.
16c\LL	.	16e\LL
16B-\JJ	.	16d\JJ
=11	=11	=11
4.c\	8b-/L]	4.e\
.	16a/L	.
.	16g/JJ	.
.	4.a/	.
16B-\LL	.	16d\LL
16A\JJ	.	16c\JJ
4.B-\	.	4.d\
.	16g/LL	.
.	16f/JJ	.
!	!LO:SIC:o=4.g	!
.	[>4g/	.
16A\LL	.	16c\LL
16G\JJ	.	16B-\JJ
=12	=12	=12
*	*clefC1	*
*	*k[b-]	*
!	!LO:TX:a:t=P:problem=złe renderowanie znaku przykluczowego	!
4.A\	8g/L]	4.c\
.	16f/L	.
.	16e/JJ	.
.	4f/	.
16G\LL	.	16B-\LL
16F\JJ	.	16A\JJ
!!LO:LB:g=original
2G/	8f/L	2B-\
.	16e/L	.
.	16d/JJ	.
.	4e/	.
=13	=13	=13
*clefF4	*clefG2	*
*	*k[b-]	*
!	!LO:TX:a:t=P:problem=złe renderowanie znaku przykluczowego	!
4.F\	8f/L	4ryy
.	16a/L	.
.	16b-/JJ	.
.	4a/ 4cc	4f\
16E\LL	.	.
16F\JJ	.	.
16BB-/LL	4b-/ 4dd	4f/
16C/	.	.
16D/	.	.
16E/JJ	.	.
8F\L	8cc/L	4a\
8D\J	8dd/J	.
=14	=14	=14
8G\L	4b-/	4g\
16E-X\L	.	.
16D\JJ	.	.
!LO:TX:a:t=P:problem=mixed beam	!	!
8C/L	4cc/	4a\
16F\L	.	.
16E-\JJ	.	.
2D/	4a/	4f\
.	4b-/	4d\
*	*v	*v
=15	=15
*^	*
*	*^	*
2F/	4C/	4AA\	8cc\L
.	.	.	16a\L
.	.	.	16g\JJ
!	!	!	!LO:TX:a:t=P:problem=mixed beam
.	[>4D/	[<4BB-\	8f/L
.	.	.	16dd\L
.	.	.	16cc\JJ
2G/	4D/]	4BB-\]	8b-/L
.	.	.	16g/L
.	.	.	16f/JJ
!	!	!	!LO:TX:a:t=P:problem=mixed beam
.	[>4E/	[<4C\	8e/L
.	.	.	16cc\L
.	.	.	16b-\JJ
!!LO:PB:g=original
=16	=16	=16	=16
2A/	4E/]	4C\]	8a/L
.	.	.	16f/L
.	.	.	16e/JJ
!	!	!	!LO:TX:a:t=P:problem=mixed beam
.	[>4F/	[<4D\	8d/L
.	.	.	16ff\L
.	.	.	16ee\JJ
2B-/	4F/]	4D\]	8dd\L
.	.	.	16b-\L
.	.	.	16a\JJ
!	!	!	!LO:TX:a:t=P:problem=mixed beam
.	4G/	4E\	16g/LL
.	.	.	16cc\
.	.	.	16b-\
.	.	.	16cc\JJ
*	*v	*v	*
=17	=17	=17
*	*	*^
(>4A/	4F\	8a/L	4f\
.	.	8b-/J	.
4G/)	4E\	4.cc/	8g\L
.	.	.	16f\L
.	.	.	16e\JJ
8F/L	8D\L	.	4.f\
16E/L	16C\L	16b-/LL	.
16D/JJ	16BB-\JJ	16a/JJ	.
!	!	!LO:SIC:o=4.b-	!
8E/L	8C\L	[>4b-/	.
[>8G/J	8BB-\J	.	8d\
=18	=18	=18	=18
8G/]	4.C\	8b-/]	4.e\
16F/LL	.	16a/LL	.
16E/JJ	.	16g/JJ	.
4.F/	.	4.a/	.
.	16BB-\LL	.	16d\LL
.	16AA\JJ	.	16c\JJ
.	4.BB-\	.	4.d\
16E/LL	.	16g/LL	.
16D/JJ	.	16f/JJ	.
!LO:SIC:o=4.E	!	!	!
[>4E/	.	4g/	.
.	16AA\LL	.	16c\LL
.	16GG\JJ	.	16B-\JJ
=19	=19	=19	=19
*	*	*clefC3	*
*	*	*k[b-]	*
!	!	!LO:TX:a:t=P:problem=złe renderowanie znaku przykluczowego	!
8E/]	4.AA\	8g/L	4.c\
16D/LL	.	16f/L	.
16C/JJ	.	16e/JJ	.
4.D/	.	4.f/	.
.	16GG\LL	.	16B-\LL
.	16FF\JJ	.	16A\JJ
.	4GG\	.	4.B-\
16C/LL	.	16e/LL	.
16BB-/JJ	.	16d/JJ	.
!LO:TX:a:t=P:problem=mixed beam	!	!	!
8GG/L	4ryy	4e/	.
16F\L	.	.	16A\LL
16E\JJ	.	.	16G\JJ
*v	*v	*	*
!!LO:LB:g=original
=20	=20	=20
4.F\	8e/L	4.A\
.	16d/L	.
.	16c/JJ	.
.	4.d/	.
16E\LL	.	16G\LL
16D\JJ	.	16F\JJ
4.E\	.	4.G\
.	16c/LL	.
.	16B-/JJ	.
!	!LO:SIC:o=4.c	!
.	[>4c/	.
16D/LL	.	16F\LL
16C/JJ	.	16E\JJ
=21	=21	=21
*2\right	*	*
2D\	8c/]	2F\
!	!LO:SIC:s=6Bn	!
.	16B#X/LL	.
.	16A/JJ	.
!	!LO:SIC:s=16Bn	!
.	4B#/	.
*	*clefC1	*
*	*k[b-]	*
!	!LO:TX:a:t=P:problem=złe renderowanie znaku przykluczowego	!
4.C/	16c/LL	4ryy
.	16d/	.
.	16e/	.
.	16f/JJ	.
.	4g/	4c\ 4e
16BB-/LL	.	.
16C/JJ	.	.
=22	=22	=22
16FF/LL	4f/ 4a	4c\
16GG/	.	.
16AA/	.	.
16BB-/JJ	.	.
8C/L	8g/L	4c\ 4e
8AA/J	8a/J	.
8D/L	4f/ 4a	4d\
16BB-/L	.	.
16AA/JJ	.	.
16GG/LL	4b-/	16d\LL
16C/	.	16e\
16BB-/	.	16d\
16C/JJ	.	16e\JJ
*	*v	*v
=23	=23
*^	*
*	*2\right	*
4C/	2AA\	16a\LL
.	.	16cc\
.	.	16b-\
.	.	16cc\JJ
4D/	.	16f\LL
.	.	16a\
.	.	16g\
.	.	16a\JJ
!!LO:LB:g=original
*	*	*clefG2
*	*	*k[b-]
!	!	!LO:TX:a:t=P:problem=mixed beam
!	!LO:SIC:s=16Bn	!
4D/	2BB-\	8d/L
.	.	16dd\L
.	.	16cc\JJ
4E/	.	8b-/L
.	.	16g/L
.	.	16f/JJ
=24	=24	=24
!	!	!LO:TX:a:t=P:problem=mixed beam
4E/	2C\	8e/L
.	.	16cc\L
.	.	16b-\JJ
4F/	.	8a/L
.	.	16f/L
.	.	16e/JJ
!	!	!LO:TX:a:t=P:problem=mixed beam
4F/	2D\	16d/LL
.	.	16dd\
.	.	16cc\
.	.	16dd\JJ
!	!	!LO:TX:a:t=P:problem=mixed beam
4B-/	.	16g/LL
.	.	16gg\
.	.	16ff\
.	.	16gg\JJ
=25	=25	=25
*	*^	*
4c/	4ryy	2E\	8ee\L
.	.	.	16ff\L
.	.	.	16gg\JJ
4c/	4A\	.	8cc\L
.	.	.	16dd\L
.	.	.	16ee\JJ
8B-\L	2ryy	2ryy	8dd\L
8A\	.	.	8cc\J
8G\	.	.	(>8.b-T>/L
8F\J	.	.	.
.	.	.	16a/Jk)
*	*v	*v	*
=26	=26	=26
*clefC4	*	*
*k[b-]	*	*
*	*2\right	*
!LO:TX:a:t=P:problem=złe renderowanie znaku przykluczowego	!	!
*	*	*^
8g/L	2G\	8b-/L	2ryy
8f/	.	8a/	.
8e/	.	(>8.gT>/	.
8d/J	.	.	.
.	.	16f/Jk)	.
8B-/L	2ryy	2b-/	2g\
16c/L	.	.	.
16d/JJ	.	.	.
(>8.cT>/L	.	.	.
16B-/Jk)	.	.	.
*	*	*v	*v
!!LO:LB:g=original
=27	=27	=27
2A/ 2d	2F\	8a/L
.	.	16b-/L
.	.	16cc/JJ
.	.	(>8.b-T>/L
.	.	16a/Jk)
2B-/ 2d	2G\	8dd\L
.	.	16ee\L
.	.	16ff\JJ
.	.	8.ee\L
.	.	16dd\Jk
*v	*v	*
=28	=28
*	*^
4.c\	8ee\L	4ryy
.	16ff\L	.
.	16gg\JJ	.
.	4gg/	8ee\L
16B-\LL	.	16dd\L
16c\JJ	.	16ee\JJ
16F/LL	8aa/L	4dd\
16G/	.	.
16A/	8ff/J	.
16B-/JJ	.	.
8c\L	8gg/L	4ee\
8A\J	8aa/J	.
=29	=29	=29
*^	*	*
8d\L	2ryy	4aa/	8ff\L
16B-\L	.	.	16dd\L
16A\JJ	.	.	16cc\JJ
!	!	!	!LO:TX:a:t=P:problem=mixed beam
16G\LL	.	4ryy	16b-/LL
16c\	.	.	16ee\
16B-\	.	.	16dd\
16c\JJ	.	.	16ee\JJ
8A\L	4ryy	2ryy	8ff\L
16A\L	.	.	16cc\L
16G\JJ	.	.	16b-\JJ
!	!	!	!LO:TX:a:t=P:problem=mixed beam
16c 16A/LL	4F\ 4A	.	16a/LL
16d/	.	.	16ff\
16c/	.	.	16ee\
*	*custos:b	*custos:b	*
16d/JJ	.	.	16ff\JJ
*	*	*v	*v
!!LO:PB:g=original
=30	=30	=30
4d/	2G\	16dd\LL
.	.	16ee-X\
.	.	16dd\
.	.	16cc\JJ
[>4e/	.	16b-\LL
.	.	16dd\
.	.	16cc\
.	.	16b-\JJ
4e/]	2A\	16cc\LL
.	.	16dd\
.	.	16cc\
.	.	16b-\JJ
4f/	.	16a\LL
.	.	16cc\
.	.	16b-\
.	.	16a\JJ
*v	*v	*
=31	=31
*	*^
*	*clefC1	*
*	*k[b-]	*
!	!LO:TX:a:t=P:problem=złe renderowanie znaku przykluczowego	!
16g\LL	4dd/	2b-\
16a\	.	.
16g\	.	.
16f\JJ	.	.
!LO:SIC:s=16e-	!	!
16e\LL	4ee-X/	.
16g\	.	.
16f\	.	.
!LO:SIC:s=16e-	!	!
16e\JJ	.	.
16f\LL	4ee-/	2a\
16g\	.	.
16f\	.	.
!LO:SIC:s=16e-	!	!
16e\JJ	.	.
16d\LL	4ff/	.
16f\	.	.
!LO:SIC:s=16e-	!	!
16e\	.	.
16d\JJ	.	.
*	*clefG2	*
*	*v	*v
=32	=32
*^	*
4g/	4e-X\	8gg\L
.	.	16ee-X\L
.	.	16dd\JJ
4a/	4f\	8cc\L
.	.	16ff\L
.	.	16ee-X\JJ
4d\	2ryy	8dd\L
.	.	16b-\L
.	.	16a\JJ
!	!	!LO:TX:a:t=P:problem=mixed beam
4e-\	.	8g/L
.	.	16cc\L
.	.	16b-\JJ
*v	*v	*
=33	=33
*	*^
8f\L	4cc/	8a\L
16d\L	.	16f\L
16c\JJ	.	16e\JJ
!	!	!LO:TX:a:t=P:problem=mixed beam
8B-\L	4ryy	8d/L
16G\L	.	16b-\L
16F\JJ	.	16a\JJ
!!LO:LB:g=original
8c\L	8g/L	8e\
16A\L	16cc/L	8ryy
16G\JJ	16b-/JJ	.
8F/L	8cc/	8a\L
16D/L	8ryy	16f\L
16C/JJ	.	16e\JJ
*	*v	*v
=34	=34
8D/L	8dd\L
16G/L	16b-\L
16F/JJ	16a\JJ
!	!LO:TX:a:t=P:problem=mixed beam
8E/L	8g/L
16A/L	16cc\L
16G/JJ	16b-\JJ
4.A/	8a/L
.	16f/L
.	16e/JJ
!	!LO:TX:a:t=P:problem=mixed beam
.	8d/L
16B-/LL	16dd\L
16A/JJ	16cc\JJ
=35	=35
*^	*^
4B-/	4G\	16b-\LL	2ryy
.	.	16dd\	.
.	.	16cc\	.
.	.	16dd\JJ	.
!	!	!LO:TX:a:t=P:problem=mixed beam	!
4c/	4E\	8g/L	.
.	.	16cc\L	.
.	.	16b-\JJ	.
2c/	4.F\	8a\L	4ryy
.	.	16b-\L	.
.	.	16cc\JJ	.
.	.	4ff/	8a\L
.	16E\LL	.	16g\L
.	16F\JJ	.	16a\JJ
*v	*v	*	*
=36	=36	=36
*clefF4	*	*
*k[b-]	*	*
!LO:TX:a:t=P:problem=złe renderowanie znaku przykluczowego	!	!
16BB-/LL	8dd/L	8b-\L
16C/	.	.
16D/	16ee-X/L	16cc\L
!LO:SIC:s=16E-	!	!
16E/JJ	16dd/JJ	16b-\JJ
8F\L	8cc/L	4a\
8D\J	8dd/J	.
8G\L	8dd/L	4b-\
16E-X\L	16gg/L	.
16D\JJ	16ff/JJ	.
16C\LL	4ee-/	16cc\LL
16F\	.	16a\
16E-\	.	16g\
16F\JJ	.	16a\JJ
*	*v	*v
!!LO:LB:g=original
=37	=37
*^	*
*	*^	*
4F/	2D/	2BB-\	16dd\LL
.	.	.	16ee-X\
.	.	.	16ff\
.	.	.	16dd\JJ
[>4G/	.	.	16b-\LL
.	.	.	16cc\
.	.	.	16dd\
.	.	.	16b-\JJ
4G/]	2E/	2C\	16g/LL
.	.	.	16a/
.	.	.	16b-/
.	.	.	16g/JJ
[>4A/	.	.	16e/LL
.	.	.	16f/
.	.	.	16g/
.	.	.	16e/JJ
=38	=38	=38	=38
!	!	!	!LO:TX:a:t=P:problem=uszkodzony papier
4A/]	2F/	2D\	16ryy
.	.	.	16ff\LL
.	.	.	16ee-X\
.	.	.	16ff\JJ
[>4B-/	.	.	16dd\LL
.	.	.	16ee-X\
.	.	.	16dd\
.	.	.	16cc\JJ
4B-/]	2G/	2E\	16b-\LL
.	.	.	16dd\
.	.	.	16cc\
.	.	.	16dd\JJ
4c/	.	.	16g/LL
.	.	.	16b-/
.	.	.	16a/
.	.	.	16g/JJ
*v	*v	*v	*
=39	=39
*	*^
16F\LL	2cc/	2a\
16A\	.	.
16G\	.	.
16A\JJ	.	.
16D\LL	.	.
16F\	.	.
16E\	.	.
16D\JJ	.	.
16BB-/LL	2dd/	2b-\
16D/	.	.
16C/	.	.
16D/JJ	.	.
16GG/LL	.	.
16BB-/	.	.
16AA/	.	.
16GG/JJ	.	.
*	*v	*v
!!LO:LB:g=original
=40	=40
*^	*
4c/	2F\	16a\LL
.	.	16cc\
.	.	16b-\
.	.	16cc\JJ
[>4d/	.	16f/LL
.	.	16a/
.	.	16g/
.	.	16f/JJ
!	!LO:SIC:s=2E	!
4d/]	2E-X\	16g/LL
.	.	16b-/
.	.	16a/
.	.	16b-/JJ
[>4c/	.	16e/LL
.	.	16g/
.	.	16f/
.	.	16e/JJ
=41	=41	=41
4c/]	2D\	16f/LL
.	.	16a/
.	.	16g/
.	.	16a/JJ
[>4B-/	.	16d/LL
.	.	16f/
.	.	16e/
.	.	16d/JJ
4B-/]	2C\	16e/LL
.	.	16c/
.	.	16d/
.	.	16e/JJ
4A/	.	16f/LL
.	.	16g/
.	.	16a/
.	.	32b-/L
.	.	32a/JJJ
*v	*v	*
=42	=42
*	*^
4.C/	2g/	4.e\
16BB-/LL	.	16d\LL
16C/JJ	.	16e\JJ
16FF/LL	4f/ 4a 4cc	8c\L
16GG/	.	.
16AA/	.	8d\J
16BB-/JJ	.	.
8C/L	8g/L	8e\L
8AA/J	8a/J	8c\J
*	*v	*v
=43	=43
*^	*
8D/L	2ryy	8f/L
16BB-/L	.	16d/L
16AA/JJ	.	16c/JJ
*	*	*^
16GG/LL	.	4g/	16d\LL
16C/	.	.	16e\
16BB-/	.	.	16d\
16C/JJ	.	.	16e\JJ
!!LO:PB:g=original
*	*	*v	*v
4C/	2AA\	16f/LL
.	.	16a/
.	.	16g/
.	.	16a/JJ
!	!	!LO:TX:a:t=P:problem=mixed beam
4D/	.	16f/LL
.	.	16ff\
.	.	16ee\
.	.	16ff\JJ
=44	=44	=44
4D/	2BB-\	16b-\LL
.	.	16dd\
.	.	16cc\
.	.	16dd\JJ
4G/	.	16g/LL
.	.	16b-/
.	.	16a/
.	.	16b-/JJ
4G/	2AA\	16cc\LL
.	.	16dd\
.	.	16cc\
.	.	16b-\JJ
!	!	!LO:TX:a:t=P:problem=mixed beam
4F/	.	16a/LL
.	.	16ff\
.	.	16ee\
.	.	16ff\JJ
=45	=45	=45
4G/	4BB-\	16dd\LL
.	.	16ee-X\
.	.	16dd\
.	.	16cc\JJ
!	!	!LO:TX:a:t=P:problem=mixed beam
4D/	4BB-\	16b-/LL
.	.	16gg\
.	.	16ff\
.	.	16gg\JJ
4ryy	2GG\	16dd\LL
.	.	16cc\
.	.	16dd\
.	.	16cc\JJ
16G/LL	.	16b-/LL
16F/	.	16a/
16G/	.	16b-/
16F/JJ	.	16a/JJ
=46	=46	=46
4D/	4BB-\	16gg\LL
.	.	16ff\
.	.	16gg\
.	.	16ff\JJ
!LO:N:vis=2	!	!
4G/	16C\LL	16ee\LL
.	16BB-\	16dd\
.	16C\	16ee\
.	16BB-\JJ	16dd\JJ
!!LO:LB:g=original
2A/	4AA\	16cc\LL
.	.	16b-\
.	.	16cc\
.	.	16b-\JJ
.	4C#X\	16a/LL
.	.	16g/
.	.	16a/
.	.	16g/JJ
=47	=47	=47
!	!	!LO:TX:a:t=P:problem=mixed beam
4F/ 4A	4D\	16f/LL
.	.	16ff\
.	.	16dd\
.	.	16cc\JJ
!	!	!LO:TX:a:t=P:problem=mixed beam
4B-/	4E-X\	16b-/LL
.	.	16bb-\
.	.	16gg\
.	.	16ff\JJ
4B-/	4E-\	16gg\LL
!	!	!LO:SIC:s=16ee-
.	.	16ee\
.	.	16ff\
.	.	16gg\JJ
4c/	4C\	16cc\LL
.	.	16ee-X\
.	.	16dd\
.	.	16cc\JJ
=48	=48	=48
4F/ 4A	4D\	16ff\LL
.	.	16dd\
!	!	!LO:SIC:s=16ee-
.	.	16ee\
.	.	16ff\JJ
4G/	4E-X\	16b-\LL
.	.	16dd\
.	.	16cc\
.	.	16b-\JJ
4A/	4C\	16cc\LL
.	.	16a\
.	.	16b-\
.	.	16cc\JJ
4F/	4D\	16f/LL
.	.	16a/
.	.	16g/
.	.	16f/JJ
=49	=49	=49
[>2G/	4BB-\	16b-/LL
.	.	16g/
.	.	16a/
.	.	16b-/JJ
!	!LO:SIC:s=4BBn	!
.	4BB#X\	16d/LL
.	.	16f/
.	.	16e/
.	.	16d/JJ
!!LO:LB:g=original
4G/]	2C\	16e/LL
.	.	16c/
.	.	16d/
.	.	16e/JJ
8A/L	.	4f/
16B-/L	.	.
16A/JJ	.	.
*v	*v	*
=50	=50
*	*^
1C 1G	8f/L	2ryy
.	16g/L	.
.	16f/JJ	.
.	8e/L	.
.	8d/J	.
.	2e/ 2g	4ryy
!	!	!LO:TX:a:t=P:problem=tryl bezpośrednio nad nutą
.	.	8.cT>\L
.	.	16B-\Jk
*	*v	*v
=51	=51
1FF 1AA 1C 1F	1A 1c 1f
!LO:TX:a:t=P:problem=utwór kończy się kreską z obustronną repetycją	!
==	==
*-	*-
!!!system-decoration: [(s1,s2)]
!!!RDF**kern: > = above
!!!RDF**kern: < = below
!!!EED: Mateusz Mrugas
!!!EEV: 2020-12-09
!!!ENC: Andrzej Borzym
!!!END: 2020-06-17
!!!YEC: Copyright 2022 Narodowy Instytut Fryderyka Chopina (https://polishscores.org)
!!!YEM: License CC-BY-4.0 (https://creativecommons.org/licenses/by/4.0)
